X: 3
T:Cantiga 169 'a la Arrixaca' Retocada
M:3/4
L:1/4
Q:100
C:Alfonso X el Sabio
S:Jose Mª Hernansáez
R:Cantiga
N:En las marcas de la partitura van tresillos
K:C
 D | EDC | DDE | G2 G | AA _B | AAG |
FGE | F3 |  G/2A/2 AG | F G/2F/2 E | D C2 | C C D | 
 FFD | EDC | D2  :|  c | A c2 | d cB| A2G | A 
A _B|   A/2G/2 F G | _B A G | A2 c| A c2| dcB| A2 G| 
AA _B | AG/2F/2 G| _BAG| A2 D | EDC | DDE | G2 
G | AA_B|  A/2G/2A F | F G E | F3 |  G/2 A/2 AG| F G/2F/2 
E | D C2 | C C D | F F D| E D C| "D.C."D2 |

